24x24/apps/tribler.svg

<svg xmlns="http://www.w3.org/2000/svg" width="24" height="24" version="1">
 <rect style="opacity:0.2" width="20" height="20" x="2" y="2.5" rx="6" ry="6"/>
 <rect style="fill:#fa4641" width="20" height="20" x="2" y="2" rx="6" ry="6"/>
 <path style="opacity:0.2;fill:#f4f4f7" d="M 8,2 C 4.676,2 2,4.676 2,8 v 0.5 c 0,-3.324 2.676,-6 6,-6 h 8 c 3.324,0 6,2.676 6,6 V 8 C 22,4.676 19.324,2 16,2 Z"/>
 <path style="opacity:0.2" d="m 11,5.5 c -1.104569,0 -2,0.8954305 -2,2 0,1.1045695 0.895431,2 2,2 0.390297,0 0.655359,-0.2246615 1.177735,-0.2871095 C 12.70011,9.1504425 12.892327,9.368077 13.5,9.5 14.328427,9.5 15,8.828427 15,8 15,7.171573 14.328427,6.5 13.5,6.5 12.436608,6.84453 12.003075,5.523244 11,5.5 Z m 1.463867,5 c -2.177238,0 -2.199805,10e-4 -2.279296,0.06152 -0.04415,0.03361 -0.09091,0.09979 -0.104493,0.147461 -0.01359,0.04767 -0.03628,0.658398 -0.04981,1.357421 -0.02633,1.362022 -0.039715,1.507016 -0.2021485,2.149415 -0.2500175,0.988784 -0.644679,1.795538 -1.53125,3.129882 C 8.0999145,17.642142 8,17.819617 8,17.873047 c 0,0.314152 1.019015,1.6261 1.263672,1.626953 0.01743,5.9e-5 0.128014,-0.06889 0.2460935,-0.153321 0.280945,-0.200888 0.8443565,-0.783024 1.1689455,-1.208007 0.858226,-1.123674 1.346664,-2.158202 1.714844,-3.633789 0.140712,-0.563942 0.18852,-0.66504 0.319336,-0.665039 0.123719,0 0.160629,0.103314 0.331055,0.930664 0.195902,0.951028 0.382054,1.535434 0.710937,2.235351 0.163882,0.348769 0.25059,0.454813 0.371094,0.454102 0.196742,-0.0011 0.845103,-0.328533 1.356445,-0.684571 C 15.732128,16.601525 16,16.342275 16,16.274414 c 0,-0.01959 -0.07799,-0.175544 -0.172851,-0.347656 -0.641478,-1.163937 -0.911659,-2.413389 -0.94043,-4.34082 -0.01127,-0.755158 -0.03302,-0.902193 -0.149415,-1.013672 L 14.66211,10.5 Z"/>
 <path style="fill:#f4f4f7" d="m 9.5099485,18.846597 c 0.280945,-0.200889 0.8440235,-0.78288 1.1686125,-1.207863 0.858226,-1.123674 1.346331,-2.158172 1.714511,-3.633758 0.140712,-0.563943 0.189386,-0.665033 0.320202,-0.665033 0.123719,0 0.160586,0.103695 0.331011,0.931046 0.195903,0.951028 0.381575,1.53514 0.710459,2.235056 0.163882,0.348769 0.250518,0.454802 0.371021,0.454091 0.196742,-0.0011 0.845607,-0.328487 1.35695,-0.684524 C 15.732421,16.101746 16,15.842719 16,15.774857 16,15.755262 15.92239,15.598409 15.827533,15.426296 15.186056,14.26236 14.915205,13.013124 14.886435,11.085693 14.87516,10.330536 14.8535,10.183446 14.737111,10.071967 L 14.661976,10 h -2.198438 c -2.177238,0 -2.199211,6e-4 -2.278702,0.06112 -0.04415,0.03362 -0.09138,0.100116 -0.104962,0.147784 -0.01359,0.04767 -0.03575,0.658598 -0.04927,1.357621 -0.02634,1.362022 -0.03999,1.507002 -0.2024235,2.149401 C 9.578163,14.70471 9.1836775,15.511018 8.2971065,16.845362 8.100141,17.141798 8,17.31968 8,17.37311 8,17.687262 9.0189125,18.999147 9.2635695,19 c 0.01743,5.9e-5 0.1282975,-0.06897 0.246377,-0.153403 z"/>
 <path style="fill:#f4f4f7" d="M 11,5 C 9.895431,5 9,5.8954305 9,7 9,8.1045695 9.895431,9 11,9 11.390297,9 11.655125,8.774948 12.1775,8.7125 12.699875,8.650052 12.892327,8.868077 13.5,9 14.328427,9 15,8.328427 15,7.5 15,6.671573 14.328427,6 13.5,6 12.436608,6.34453 12.003075,5.023244 11,5 Z"/>
</svg>

<svg xmlns="http://www.w3.org/2000/svg" width="24" height="24" version="1"><rect style="opacity:.2" width="20" height="20" x="2" y="2.5" rx="6" ry="6"/><rect style="fill:#fa4641" width="20" height="20" x="2" y="2" rx="6" ry="6"/><path style="opacity:.2;fill:#f4f4f7" d="M8 2C4.676 2 2 4.676 2 8v.5c0-3.324 2.676-6 6-6h8c3.324 0 6 2.676 6 6V8c0-3.324-2.676-6-6-6z"/><path style="opacity:.2" d="M11 5.5a2 2 0 0 0 0 4c.39 0 .655-.225 1.178-.287.522-.063.714.155 1.322.287a1.5 1.5 0 0 0 0-3c-1.063.345-1.497-.977-2.5-1zm1.464 5c-2.177 0-2.2.001-2.28.062a.335.335 0 0 0-.104.147c-.014.048-.036.658-.05 1.357-.026 1.362-.04 1.507-.202 2.15-.25.989-.645 1.795-1.531 3.13-.197.296-.297.474-.297.527 0 .314 1.019 1.626 1.264 1.627.017 0 .128-.069.246-.153.28-.201.844-.783 1.169-1.208.858-1.124 1.346-2.159 1.715-3.634.14-.564.188-.665.319-.665.124 0 .16.103.33.93.197.952.383 1.536.712 2.236.164.349.25.455.371.454.197-.001.845-.329 1.356-.685.25-.173.518-.433.518-.5 0-.02-.078-.176-.173-.348-.641-1.164-.912-2.414-.94-4.341-.012-.755-.033-.902-.15-1.014l-.075-.072z"/><path style="fill:#f4f4f7" d="M9.51 18.847c.28-.201.844-.783 1.169-1.208.858-1.124 1.346-2.158 1.714-3.634.14-.564.19-.665.32-.665.124 0 .16.104.331.931.196.951.382 1.535.71 2.235.165.349.251.455.372.454.197-.001.845-.328 1.357-.684.25-.174.517-.433.517-.501 0-.02-.078-.177-.172-.349-.642-1.164-.913-2.413-.942-4.34-.01-.755-.032-.903-.149-1.014L14.662 10h-2.198c-2.178 0-2.2 0-2.28.061a.337.337 0 0 0-.104.148c-.014.048-.036.659-.05 1.358-.026 1.362-.04 1.507-.202 2.149-.25.989-.644 1.795-1.53 3.13-.198.296-.298.474-.298.527C8 17.687 9.019 19 9.264 19c.017 0 .128-.069.246-.153zM11 5a2 2 0 0 0 0 4c.39 0 .655-.225 1.178-.287.522-.063.714.155 1.322.287a1.5 1.5 0 0 0 0-3c-1.063.345-1.497-.977-2.5-1z"/></svg>
